X:1
T:Tyrolese Dance, The
L:1/8
M:2/4
S:Hodsoll's Collection of Popular Dances No. 24
K:F
A/B/|cA/B/ cf|d2 B2|GGcc|B/A/G/A/ FA/B/|cA/B/ cf|d2 g2|f/e/d/c/ de|f2 z||
c|Bg/g/ gB|Af/f/ fA|dcBA|c/B/A/B/ Gc|Bg/g/ gB|Af/f/ fA|f/e/d/c/ de|f2 z||
c|[f3a3] [eg]|[d3f3] [ce]|[Bd][Ac][GB][FA]|[GB][GB][GB]c|[fa][eg]|[d3f3][ce]|[ce]c[=Bd][_Be]|[Ag][Af][Af]||

